X:261
T:B261-  Kind Husband and Imperious Wife
Q:1/4=120
M:6/4
L:1/4
K:Gm
B3|ABG^FED|G3B3|ABGAG^F|G3B3|\
ABG^FED|G3B3|ABG^FED|(G3G2) ":s:"(A/B/)|\
cBAcBA|(c3c2)(B/2A/2)|Bcdedc|d3c3|\
cBAcBA|c3B3|ABGAG^F|(G3G2)|]

